X:1
T:Praise Song, SMD
T:Praise Song, SMD
T:Felix Mendelssohn (1809-1847)
T:Public Domain Courtesy of the Cyber Hymnal™
C:Felix Mendelssohn (1809-1847)
Z:Public Domain
Z:Courtesy of the Cyber Hymnal™
%%score ( 1 2 ) ( 3 4 )
L:1/8
Q:1/4=115
M:6/8
K:Bb
V:1 treble 
V:2 treble 
V:3 bass 
V:4 bass 
V:1
 [DF] | [Fd]2 [Fd] ([Fd][Ec])[DB] | [EA]3 | [Ec]3 | [FB]2 [FB] (Bc)[Fd] | [Fc]3- [Fc]2 [DF] | %6
 [Fd]2 [Fd] (dc)[FB] | [FA]2 [FA] (AB)[Fc] | [=Ec]2 [Ec] (cB)[EG] | F3- F2 F | %10
 [Ae]2 [Bd] [Ac]2 [FB] | ([F-B]3 [FA]2) [FA] | [FB]2 [FB] (Bc)[Fd] | [Fc]3- [Fc]2 F | %14
 [Fd]2 [Fd] [Fd]2 [Fd] | [_Af]2 [Af] (ed)[Gc] | [FB]2 [DB] (c!fermata!d)[Ec] | [DB]3- [DB]2 |] %18
V:2
 x | x6 | x3 | x3 | x3 F2 x | x6 | x3 F2 x | x3 F2 x | x3 =E2 x | F3- F2 F | x6 | x6 | x3 F2 x | %13
 x5 F | x6 | x3 F2 x | x3 E2 x | x5 |] %18
V:3
 [B,,B,] | [B,,B,]2 [B,,B,] [B,,B,]2 [D,B,] | [F,C]3 | [F,A,]3 | %4
 [D,B,]2 [D,B,] ([D,B,][C,A,])[B,,B,] | [F,A,]3- [F,A,]2 [B,,B,] | %6
 [B,,B,]2 [B,,B,] ([B,,B,][C,A,])[D,B,] | [F,C]2 [F,C] (CB,)[F,A,] | %8
 [C,G,]2 [C,G,] [C,G,]2 [C,B,] | [F,A,]3- [F,A,]2 F, | [F,C]2 [F,B,] [F,E]2 [F,D] | %11
 ([F,-D]3 [F,C]2) [E,C] | [D,B,]2 [D,B,] ([D,B,][C,A,])[B,,B,] | [F,A,]3- [F,A,]2 F, | %14
 [B,,B,]2 [B,,B,] [B,,B,]2 [B,,B,] | [D,B,]2 [D,=B,] (CD)[E,E] | %16
 [F,D]2 [F,B,] !fermata![F,A,]2 [F,A,] | [B,,B,]3- [B,,B,]2 |] %18
V:4
 x | x6 | x3 | x3 | x6 | x6 | x6 | x3 F,2 x | x6 | x5 F, | x6 | x6 | x6 | x5 F, | x6 | x3 E,2 x | %16
 x6 | x5 |] %18

